vi-base/public/vi/viur-shoelace/assets/icons/list-item.svg

<svg xmlns="http://www.w3.org/2000/svg" viewBox="14 7 32 44"><path fill="currentcolor" opacity=".5" d="M24.29 7.23 14.07 18.97h10.22V7.23z"/><path d="M24.29 7.23V19H14.07v31.9h31.86V7.23ZM24 42.5h-3.64v-3.61H24Zm0-6.35h-3.64v-3.61H24Zm0-6.36h-3.64v-3.61H24Zm15.81 12H26.63v-2.16h13.15Zm0-6.35H26.63v-2.17h13.15Zm0-6.28H26.63V27h13.15Z" fill="currentcolor"/></svg>

<svg xmlns="http://www.w3.org/2000/svg" viewBox="14 7 32 44"><polygon points="24.29 7.23 14.07 18.97 24.29 18.97 24.29 7.23" fill="currentcolor" opacity="0.5"/><path d="M24.29,7.23V19H14.07V50.9H45.93V7.23ZM24,42.5H20.36V38.89H24Zm0-6.35H20.36V32.54H24Zm0-6.36H20.36V26.18H24Zm15.81,12H26.63V39.63H39.78Zm0-6.35H26.63V33.27H39.78Zm0-6.28H26.63V27H39.78Z" fill="currentcolor"/></svg>
